images/careers-s-icon.svg

<svg width="24" height="24" viewBox="0 0 24 24" fill="none" xmlns="http://www.w3.org/2000/svg">
    <path d="M2 9H22V17C22 19.2091 20.2091 21 18 21H6C3.79086 21 2 19.2091 2 17V9Z" fill="#2A7DEC"/>
    <path d="M9.5 5C9.77614 5 10 4.77614 10 4.5C10 4.22386 10.2239 4 10.5 4H13.5C13.7761 4 14 4.22386 14 4.5C14 4.77614 14.2239 5 14.5 5H15C15.5523 5 16 4.55228 16 4C16 3.46957 15.7893 2.96086 15.4142 2.58579C15.0391 2.21071 14.5304 2 14 2H10C9.46957 2 8.96086 2.21071 8.58579 2.58579C8.21071 2.96086 8 3.46957 8 4C8 4.55228 8.44772 5 9 5H9.5Z" fill="#2A7DEC"/>
    <path d="M5 5.5H19C19.663 5.5 20.2989 5.76339 20.7678 6.23223C21.2366 6.70107 21.5 7.33696 21.5 8V9.27868C21.5 9.92425 21.0869 10.4974 20.4745 10.7016L15.3128 12.423C15.1598 12.474 14.9996 12.5 14.8383 12.5H9.16169C9.0004 12.5 8.84017 12.474 8.68716 12.423L3.52547 10.7016C2.91305 10.4974 2.5 9.92426 2.5 9.27868V8C2.5 7.33696 2.76339 6.70107 3.23223 6.23223C3.70107 5.76339 4.33696 5.5 5 5.5Z" fill="#D4E5FB" stroke="white"/>
</svg>

<svg width="24" height="24" fill="none" xmlns="http://www.w3.org/2000/svg"><path d="M2 9h20v8a4 4 0 0 1-4 4H6a4 4 0 0 1-4-4V9ZM9.5 5a.5.5 0 0 0 .5-.5.5.5 0 0 1 .5-.5h3a.5.5 0 0 1 .5.5.5.5 0 0 0 .5.5h.5a1 1 0 0 0 1-1 2 2 0 0 0-2-2h-4a2 2 0 0 0-2 2 1 1 0 0 0 1 1h.5Z" fill="#2A7DEC"/><path d="M5 5.5h14A2.5 2.5 0 0 1 21.5 8v1.279a1.5 1.5 0 0 1-1.026 1.423l-5.161 1.721a1.5 1.5 0 0 1-.475.077H9.162a1.5 1.5 0 0 1-.475-.077l-5.162-1.721A1.5 1.5 0 0 1 2.5 9.279V8A2.5 2.5 0 0 1 5 5.5Z" fill="#D4E5FB" stroke="#fff"/></svg>
